X: 619
T: Plow Boy., The
T: an toirea.m.
R:air
N:"Moderate." "Collected from J. O'Neill."
B:O'Neill's 619
Z:"dcde" should probably be "d^cde" in part I, measures 3, 7
Z:Transcribed by John Walsh (walsh@math.ubc.ca)
M:C
L:1/8
%Q:55
K:G
(G>F)|DG{A}GF G2 FG|ABAG F2 ((3ABc)|dcde fdcA|GBAG F2 GF|
DG{A}GF G2 FG|ABAG F2 ((3ABc)|dcde fdcA|GBAF G2||
(Bc)|dedB c2 Bc|dgfa g2 Bc|defd cAGF|DF{G}FE F2 GF|
D2 GF GABG|A2 FE FGAc|((3def) eg fdcA|GBAF G2||


